X:1
T:Title
%%score { ( 1 4 ) | ( 2 3 ) }
L:1/8
M:4/4
K:Bb
V:1 treble nm="Grand Piano"
V:4 treble 
V:2 bass 
V:3 bass 
V:1
 z4 z2[Q:1/4=100] [B,D]>[CE] | [DF]3 [DF] [DB]2 [B,D]F | F2 E4 C>D | E3 F A2 G2 |[M:3/4] [DF]6 | %5
[M:1/4] [B,D]>[CE] |[M:4/4] [DF]3 [DF] [DB]2 [B,F]2 | [B,FA]2 [B,EG]4 [B,DF]>[B,_DF] | %8
 [A,CF]3 [G,C=E] [G,CE]2 [B,EG]2 |[M:7/8] F2- [DF-]2 [EF]3 |[M:1/4] F>B |[M:4/4] d6 z2 | %12
 d2 c4 F>A | c6 z2 | [Ec]2 z2 z4 | [EG]6 z2 | [Ge]2 [Fd]4 [Gc]>[Gc] | BBBB d3 c |[M:3/4] [DB]6 |] %19
V:2
 z4 z2 [B,,F,]>[B,,F,] | [B,,B,]3 [B,,B,] [B,,F,]2 z D | [F,B,D]2 [F,A,C]4 [F,A,]>[F,B,] | %3
 [F,A,C]3 [F,D] [F,CE]2 [F,A,E]2 |[M:3/4] [B,,B,]6 |[M:1/4] [B,,F,]>[B,,F,] | %6
[M:4/4] [B,,B,]3 [B,,B,] [B,,F,]2 z[K:treble] B | E,2 E,4 B,,>B,, | C,3 C, C,2 C,2 | %9
[M:7/8] z C B,2 C3 |[M:1/4][K:treble] D>D |[M:4/4] F6[K:bass] z2 | [F,B,F]2 [F,A,F]4 z z/ F/ | %13
 E6[K:bass] z2 | z2 D4 B,,>B,, | E,2 E,>E, E,E,E,B, | [B,,B,]2 [B,,B,]4 [E,B,]>[E,E] | %17
 [F,DF][F,DF][F,DF][F,DF] [F,B,F]3 [F,A,E] |[M:3/4] [B,,B,]6 |] %19
V:3
 x8 | z4 z2 [B,,F,]2 | x8 | x8 |[M:3/4] x6 |[M:1/4] x2 |[M:4/4] z4 z2 D,2[K:treble] | x8 | x8 | %9
[M:7/8] F,-F,-F,- F,- F,3 |[M:1/4][K:treble] x2 | %11
[M:4/4] z2[K:bass] B,,>B,, B,,[B,,B,][B,,B,][B,,B,] | x8 | %13
 z2[K:bass] F,>F, F,[F,A,E][F,B,F][F,EF] | B,,6 z2 | x8 | x8 | x8 |[M:3/4] x6 |] %19
V:4
 x8 | x8 | x8 | x8 |[M:3/4] x6 |[M:1/4] x2 |[M:4/4] x8 | x8 | x8 |[M:7/8] A,2 z z z z2 | %10
[M:1/4] x2 |[M:4/4] z2 B,>B, B,[Fd][Ge][Fd] | x8 | z2 A,>A, A,cdc | F2- [FB]4 [B,DF]>[B,DF] | %15
 B,2 B,>B, B,[B,EG][B,GB][Ge] | x8 | x8 |[M:3/4] x6 |] %19

